X: 50
T:Black Joke - Stretton on Fosse
N:Tune as played for Grand Union Morris
M:6/8
L:1/8
Q:80
S:OY (AB)4
K:G
"A" D | DGG GFG | AcB AGF | GAB dcB | AcB AGF |G3 E3 | DEF G2 ||
"B" B |d2 d d2 d | ede d2 B | d2 d d2 d | ede d2 c | B2 B BAG |   AcB AG
F  | GAB dcB | AcB AGF |G3 E3 | DEF G3 ||
